X:26
T:Duke of Cumberland's March,The. BC.26
M:C
L:1/8
Q:180
S:Benjamin Cooke MS.circa 1770, F.Kidson Coll.
R:March
O:England
A:x
N:I don't suppose this was a particularly popular tune north of the
N:border, where the Duke's army waged a campaign against the rebels
N:noted, even by the standards of the time, for it's savagery. CGP.
Z:vmp.John Bagnall
K:D
F/G/ | A2 B2 A2 B2 | AGFE D2 d2 | c2 d2 e2 f2 | edcB A2 GF |
 B2 B2 .Bc.dB| A2 A2 A2 GF | G2 G2 AGFE |  D2 D2 DGFE | D2 D2 D3 :|
|:f | edcd e2 f2 | edcB A2 f2 | edcd e2 f2 | edcB A2 de |
 f2 eg f2 eg | f2 e2 d2 ce | d2 ce d2 c2 | B2 g2 fedc |
 {c}B6 Ac | d2 d2 d2 cd | e2 e2 e2 de | f2 f2 gfed |
 cdec A2 GF | B2 B2 .Bc.dB | A2 A2 A2 GF | B2 B2 .Bc.dB |
A2 A2 A2 GF | G2 G2 AGFE | D2 D2 DGFE | D2 D2 D3 :|]

